X: 24016
T: Logan's Fling
R: strathspey
M: 4/4
K: Edorian
|:(3BAF|E2 B>A G<EE>F|D2 F>A D>A (3FGA|(3EGE B>A G<EE>F|D>FA>F G2:|
F>c|d<BB>d A<FF>A|d<Bc>d e2 (3gfe|d<BB>d A2 F>A|(3dcB A>F G2 F>c|
d2 (3Bcd A<F F2|d>Bc>d e2 (3cde|(3fgf e>f (3dcB A2|(3Bcd A>F E2||

